**harmony	**harte	**kern	**silbe	**kern	**silbe	**kern	**silbe	**rhyme	**timestamp	**phrase	**leadinstrument
*M4/4	*M4/4	*ICvox	*	*ICvox	*	*ICvox	*	*	*	*	*
*	*	*VRlead	*	*VRresponse	*	*VRbacking*VRharmonize	*	*	*	*	*
*	*	*Hstimme	*	*Nstimme	*	*Nstimme	*	*	*	*	*
*A-:	*A-:	*A-:	*	*A-:	*	*A-:	*	*	*	*	*
*	*	*M4/4	*	*M4/4	*	*M4/4	*	*	*	*	*
*	*	*clefF4	*	*clefF4	*	*clefG2	*	*	*	*	*
1r;	1r	r;	.	r;	.	r;	.	.	0	.	r
=1	=1	=1	=1	=1	=1	=1	=1	=1	=1	=1	=1
*>Letter>A	*>Letter>A	*>Letter>A	*>Letter>A	*>Letter>A	*>Letter>A	*>Letter>A	*>Letter>A	*>Letter>A	*>Letter>A	*>Letter>A	*>Letter>A
*>Label>Intro	*>Label>Intro	*>Label>Intro	*>Label>Intro	*>Label>Intro	*>Label>Intro	*>Label>Intro	*>Label>Intro	*>Label>Intro	*>Label>Intro	*>Label>Intro	*>Label>Intro
1N	N	1r	.	1r	.	1r	.	.	0.604	newline	drums
=2	=2	=2	=2	=2	=2	=2	=2	=2	=2	=2	=2
1N	N	1r	.	1r	.	1r	.	.	2.897	.	drums
=3	=3	=3	=3	=3	=3	=3	=3	=3	=3	=3	=3
1N	N	1r	.	1r	.	1r	.	.	5.189	.	drums
=4	=4	=4	=4	=4	=4	=4	=4	=4	=4	=4	=4
1N	N	1r	.	1r	.	1r	.	.	7.482	.	drums
=5	=5	=5	=5	=5	=5	=5	=5	=5	=5	=5	=5
*>Letter>B	*>Letter>B	*>Letter>B	*>Letter>B	*>Letter>B	*>Letter>B	*>Letter>B	*>Letter>B	*>Letter>B	*>Letter>B	*>Letter>B	*>Letter>B
*>Label>Instrumental	*>Label>Instrumental	*>Label>Instrumental	*>Label>Instrumental	*>Label>Instrumental	*>Label>Instrumental	*>Label>Instrumental	*>Label>Instrumental	*>Label>Instrumental	*>Label>Instrumental	*>Label>Instrumental	*>Label>Instrumental
1A-M	A-:maj	1r	.	1r	.	1r	.	.	9.775	newline	synthesizer
=6	=6	=6	=6	=6	=6	=6	=6	=6	=6	=6	=6
2Fm	F:min	1r	.	1r	.	1r	.	.	12.068	.	synthesizer
2D-M	D-:maj	.	.	.	.	.	.	.	13.215	.	synthesizer
=7	=7	=7	=7	=7	=7	=7	=7	=7	=7	=7	=7
1E-M	E-:maj	[2B-	Mm	1r	.	1r	.	.	14.362	.	synthesizer
.	.	8B-]	_	.	.	.	.	.	.	.	.
.	.	[8A-	_	.	.	.	.	.	.	.	.
.	.	4A-]	.	.	.	.	.	.	.	.	.
=8	=8	=8	=8	=8	=8	=8	=8	=8	=8	=8	=8
1E-M	E-:maj	1r	.	1r	.	1r	.	.	16.655	.	synthesizer
=9	=9	=9	=9	=9	=9	=9	=9	=9	=9	=9	=9
1D-M	D-:maj(9)	4r	.	1r	.	1r	.	.	18.949	newline	synthesizer
.	.	8r	.	.	.	.	.	.	.	.	.
.	.	[8d-	Mmm	.	.	.	.	.	.	.	.
.	.	4.d-]	_	.	.	.	.	.	.	.	.
.	.	8e-	_	.	.	.	.	.	.	.	.
=10	=10	=10	=10	=10	=10	=10	=10	=10	=10	=10	=10
1D-M	D-:maj(9)	8c	_	1r	.	1r	.	.	21.231	.	synthesizer
.	.	8c	_	.	.	.	.	.	.	.	.
.	.	8A-	_	.	.	.	.	.	.	.	.
.	.	16F	_	.	.	.	.	.	.	.	.
.	.	[16A-	_	.	.	.	.	.	.	.	.
.	.	8A-]	_	.	.	.	.	.	.	.	.
.	.	8F	_	.	.	.	.	.	.	.	.
.	.	4r	.	.	.	.	.	.	.	.	.
=11	=11	=11	=11	=11	=11	=11	=11	=11	=11	=11	=11
1A-M	A-:maj	1r	.	1r	.	1r	.	.	23.514	.	synthesizer
=12	=12	=12	=12	=12	=12	=12	=12	=12	=12	=12	=12
2A-M	A-:maj	1r	.	1r	.	1r	.	.	25.796	.	synthesizer
2E-M	E-:maj	.	.	.	.	.	.	.	26.937	.	synthesizer
=13	=13	=13	=13	=13	=13	=13	=13	=13	=13	=13	=13
*>Letter>B	*>Letter>B	*>Letter>B	*>Letter>B	*>Letter>B	*>Letter>B	*>Letter>B	*>Letter>B	*>Letter>B	*>Letter>B	*>Letter>B	*>Letter>B
*>Label>Verse	*>Label>Verse	*>Label>Verse	*>Label>Verse	*>Label>Verse	*>Label>Verse	*>Label>Verse	*>Label>Verse	*>Label>Verse	*>Label>Verse	*>Label>Verse	*>Label>Verse
1A-M	A-:maj	4.c	Mar-	1r	.	1r	.	.	28.078	newline	voice
.	.	8e-	-vin,	.	.	.	.	.	.	.	.
.	.	2r	.	.	.	.	.	.	.	.	.
=14	=14	=14	=14	=14	=14	=14	=14	=14	=14	=14	=14
2Fm	F:min	2r	.	1r	.	1r	.	.	30.369	.	voice
2D-M	D-:maj	8r	.	.	.	.	.	.	31.515	.	voice
.	.	16E-	he	.	.	.	.	.	.	.	.
.	.	[16A-	was	.	.	.	.	.	.	.	.
.	.	8A-]	_	.	.	.	.	.	.	.	.
.	.	8F	a	.	.	.	.	.	.	.	.
=15	=15	=15	=15	=15	=15	=15	=15	=15	=15	=15	=15
1E-M	E-:maj	8c	friend	1r	.	1r	.	.	32.66	.	voice
.	.	16B-	of	.	.	.	.	.	.	.	.
.	.	[16B-	mine	.	.	.	.	A	.	.	.
.	.	8B-]	_	.	.	.	.	.	.	.	.
.	.	8c	.	.	.	.	.	.	.	.	.
.	.	2r	.	.	.	.	.	.	.	.	.
=16	=16	=16	=16	=16	=16	=16	=16	=16	=16	=16	=16
1E-M	E-:maj	2r	.	1r	.	1r	.	.	34.951	.	voice
.	.	8r	.	.	.	.	.	.	.	.	.
.	.	8c	and	.	.	.	.	.	.	.	.
.	.	8B-	he	.	.	.	.	.	.	.	.
.	.	8A-	could	.	.	.	.	.	.	.	.
=17	=17	=17	=17	=17	=17	=17	=17	=17	=17	=17	=17
1D-M	D-:maj	8B-	sing	1r	.	1r	.	.	37.242	newline	voice
.	.	16F	his	.	.	.	.	.	.	.	.
.	.	[16A-	song	.	.	.	.	.	.	.	.
.	.	4A-_	_	.	.	.	.	.	.	.	.
.	.	4A-]	.	.	.	.	.	.	.	.	.
.	.	4r	.	.	.	.	.	.	.	.	.
=18	=18	=18	=18	=18	=18	=18	=18	=18	=18	=18	=18
1D-M	D-:maj	2r	.	1r	.	1r	.	.	39.518	.	voice
.	.	8r	.	.	.	.	.	.	.	.	.
.	.	8c	his	.	.	.	.	.	.	.	.
.	.	8B-	heart	.	.	.	.	.	.	.	.
.	.	8A-	in	.	.	.	.	.	.	.	.
=19	=19	=19	=19	=19	=19	=19	=19	=19	=19	=19	=19
1E-M	E-:maj	4c	ev-	1r	.	1r	.	.	41.794	.	voice
.	.	8B-	-'ry	.	.	.	.	.	.	.	.
.	.	[8B-	line	.	.	.	.	A	.	.	.
.	.	8B-]	_	.	.	.	.	.	.	.	.
.	.	8c	_	.	.	.	.	.	.	.	.
.	.	4r	.	.	.	.	.	.	.	.	.
=20	=20	=20	=20	=20	=20	=20	=20	=20	=20	=20	=20
1E-M	E-:maj	1r	.	1r	.	1r	.	.	44.069	.	voice
=21	=21	=21	=21	=21	=21	=21	=21	=21	=21	=21	=21
.	.	8B-q	_	.	.	.	.	.	.	.	.
1A-M	A-:maj	4.c	Mar-	1r	.	1r	.	.	46.345	newline	voice
.	.	8e-	-vin,	.	.	.	.	.	.	.	.
.	.	2r	.	.	.	.	.	.	.	.	.
=22	=22	=22	=22	=22	=22	=22	=22	=22	=22	=22	=22
2Fm	F:min	2r	.	1r	.	1r	.	.	48.636	.	voice
2D-M	D-:maj	8r	.	.	.	.	.	.	49.782	.	voice
.	.	8F	sang	.	.	.	.	.	.	.	.
.	.	8.A-	of	.	.	.	.	.	.	.	.
.	.	16F	the	.	.	.	.	.	.	.	.
=23	=23	=23	=23	=23	=23	=23	=23	=23	=23	=23	=23
1E-M	E-:maj	8.c-	joy	1r	.	1r	.	.	50.927	.	voice
.	.	[16B-	and	.	.	.	.	.	.	.	.
.	.	8B-]	_	.	.	.	.	.	.	.	.
.	.	[8B-	pain	.	.	.	.	B	.	.	.
.	.	8B-]	_	.	.	.	.	.	.	.	.
.	.	8c	_	.	.	.	.	.	.	.	.
.	.	4r	.	.	.	.	.	.	.	.	.
=24	=24	=24	=24	=24	=24	=24	=24	=24	=24	=24	=24
1E-M	E-:maj	2r	.	1r	.	1r	.	.	53.218	.	voice
.	.	8r	.	.	.	.	.	.	.	.	.
.	.	8c	He	.	.	.	.	.	.	.	.
.	.	8B-	o-	.	.	.	.	.	.	.	.
.	.	8A-	-pened	.	.	.	.	.	.	.	.
=25	=25	=25	=25	=25	=25	=25	=25	=25	=25	=25	=25
1D-M	D-:maj(9)	16B-	up	1r	.	1r	.	.	55.51	newline	voice
.	.	8r	.	.	.	.	.	.	.	.	.
.	.	16F	our	.	.	.	.	.	.	.	.
.	.	8r	.	.	.	.	.	.	.	.	.
.	.	[8A-	minds	.	.	.	.	.	.	.	.
.	.	2A-]	.	.	.	.	.	.	.	.	.
=26	=26	=26	=26	=26	=26	=26	=26	=26	=26	=26	=26
1D-M	D-:maj(9)	2r	.	1r	.	1r	.	.	57.797	.	voice
.	.	16r	.	.	.	.	.	.	.	.	.
.	.	16F	And	.	.	.	.	.	.	.	.
.	.	8c	I	.	.	.	.	.	.	.	.
.	.	8B-	still	.	.	.	.	.	.	.	.
.	.	8A-	can	.	.	.	.	.	.	.	.
=27	=27	=27	=27	=27	=27	=27	=27	=27	=27	=27	=27
1E-M	E-:maj	8.c	hear	1r	.	1r	.	.	60.084	.	voice
.	.	[16B-	him	.	.	.	.	.	.	.	.
.	.	8B-]	_	.	.	.	.	.	.	.	.
.	.	[8B-	say	.	.	.	.	B	.	.	.
.	.	8B-]	_	.	.	.	.	.	.	.	.
.	.	8c	.	.	.	.	.	.	.	.	.
.	.	4r	.	.	.	.	.	.	.	.	.
=28	=28	=28	=28	=28	=28	=28	=28	=28	=28	=28	=28
1E-M	E-:maj	2r	.	1r	.	1r	.	.	62.372	.	voice
.	.	4r	.	.	.	.	.	.	.	.	.
.	.	4A-	Oh,	.	.	.	.	.	.	.	.
=29	=29	=29	=29	=29	=29	=29	=29	=29	=29	=29	=29
*>Letter>C	*>Letter>C	*>Letter>C	*>Letter>C	*>Letter>C	*>Letter>C	*>Letter>C	*>Letter>C	*>Letter>C	*>Letter>C	*>Letter>C	*>Letter>C
*>Label>Prechorus	*>Label>Prechorus	*>Label>Prechorus	*>Label>Prechorus	*>Label>Prechorus	*>Label>Prechorus	*>Label>Prechorus	*>Label>Prechorus	*>Label>Prechorus	*>Label>Prechorus	*>Label>Prechorus	*>Label>Prechorus
1Fm	F:min	8A-	talk	1r	.	1r	.	.	64.659	newline	voice
.	.	16A-	to	.	.	.	.	.	.	.	.
.	.	16F	me,	.	.	.	.	C	.	.	.
.	.	4r	.	.	.	.	.	.	.	.	.
.	.	4r	.	.	.	.	.	.	.	.	.
.	.	8r	.	.	.	.	.	.	.	.	.
.	.	8c	so	.	.	.	.	.	.	.	.
=30	=30	=30	=30	=30	=30	=30	=30	=30	=30	=30	=30
1B-m	B-:min	16B-	you	1r	.	1r	.	.	66.946	.	voice
.	.	8r	.	.	.	.	.	.	.	.	.
.	.	16A-	can	.	.	.	.	.	.	.	.
.	.	8r	.	.	.	.	.	.	.	.	.
.	.	8A-	see	.	.	.	.	C	.	.	.
.	.	4r	.	.	.	.	.	.	.	.	.
.	.	8r	.	.	.	.	.	.	.	.	.
.	.	8c	what's	.	.	.	.	.	.	.	.
=31	=31	=31	=31	=31	=31	=31	=31	=31	=31	=31	=31
1E-M	E-:maj	8c	go-	1r	.	1r	.	.	69.233	.	voice
.	.	16B-	-ing	.	.	.	.	.	.	.	.
.	.	[16B-	on	.	.	.	.	.	.	.	.
.	.	8B-]	_	.	.	.	.	.	.	.	.
.	.	8c	_	.	.	.	.	.	.	.	.
.	.	2r	.	.	.	.	.	.	.	.	.
=32	=32	=32	=32	=32	=32	=32	=32	=32	=32	=32	=32
1E-M	E-:maj	1r	.	1r	.	1r	.	.	71.52	.	voice
=33	=33	=33	=33	=33	=33	=33	=33	=33	=33	=33	=33
1Fm	F:min	8A-	Say	1r	.	1r	.	.	73.808	newline	voice
.	.	16A-	you	.	.	.	.	.	.	.	.
.	.	16F	will	.	.	.	.	.	.	.	.
.	.	4r	.	.	.	.	.	.	.	.	.
.	.	2r	.	.	.	.	.	.	.	.	.
=34	=34	=34	=34	=34	=34	=34	=34	=34	=34	=34	=34
1B-m	B-:min	8.B-	sing	1r	.	1r	.	.	76.094	.	voice
.	.	[16B-	your	.	.	.	.	.	.	.	.
.	.	8B-]	_	.	.	.	.	.	.	.	.
.	.	8A-	songs	.	.	.	.	.	.	.	.
.	.	4r	.	.	.	.	.	.	.	.	.
.	.	8r	.	.	.	.	.	.	.	.	.
.	.	8F	for-	.	.	.	.	.	.	.	.
=35	=35	=35	=35	=35	=35	=35	=35	=35	=35	=35	=35
1D-MM	D-:maj7	8A-	-e-	1r	.	1r	.	.	78.38	.	voice
.	.	16A-	-ver-	.	.	.	.	.	.	.	.
.	.	16F	-more,	.	.	.	.	.	.	.	.
.	.	8r	.	.	.	.	.	.	.	.	.
.	.	8A-	e-	.	.	.	.	.	.	.	.
.	.	16A-	-ver-	.	.	.	.	.	.	.	.
.	.	16F	-more,	.	.	.	.	.	.	.	.
.	.	8r	.	.	.	.	.	.	.	.	.
.	.	4r	.	.	.	.	.	.	.	.	.
=36	=36	=36	=36	=36	=36	=36	=36	=36	=36	=36	=36
1D-MM	D-:maj7	8A-	e-	1r	.	1r	.	.	80.666	.	voice
.	.	16A-	-ver-	.	.	.	.	.	.	.	.
.	.	16F	-more.	.	.	.	.	.	.	.	.
.	.	4r	.	.	.	.	.	.	.	.	.
.	.	8r	.	.	.	.	.	.	.	.	.
.	.	16c	Gon-	.	.	.	.	.	.	.	.
.	.	16c	-na	.	.	.	.	.	.	.	.
.	.	8e-	be	.	.	.	.	.	.	.	.
.	.	8c	some	.	.	.	.	.	.	.	.
=37	=37	=37	=37	=37	=37	=37	=37	=37	=37	=37	=37
*>Letter>D	*>Letter>D	*>Letter>D	*>Letter>D	*>Letter>D	*>Letter>D	*>Letter>D	*>Letter>D	*>Letter>D	*>Letter>D	*>Letter>D	*>Letter>D
*>Label>Chorus	*>Label>Chorus	*>Label>Chorus	*>Label>Chorus	*>Label>Chorus	*>Label>Chorus	*>Label>Chorus	*>Label>Chorus	*>Label>Chorus	*>Label>Chorus	*>Label>Chorus	*>Label>Chorus
1A-M	A-:maj	8.f	sweet	1r	.	1r	.	.	82.951	newline	voice
.	.	[16e-	sounds	.	.	.	.	D	.	.	.
.	.	4e-_	_	.	.	.	.	.	.	.	.
.	.	4e-]	_	.	.	.	.	.	.	.	.
.	.	4r	.	.	.	.	.	.	.	.	.
=38	=38	=38	=38	=38	=38	=38	=38	=38	=38	=38	=38
2Fm	F:min	16c-	co-	1r	.	1r	.	.	85.222	.	voice
.	.	8c-	-min'	.	.	.	.	.	.	.	.
.	.	16B-	down,	.	.	.	.	D	.	.	.
.	.	[4A-	_	.	.	.	.	.	.	.	.
2D-M	D-:maj	8A-]	_	.	.	.	.	.	86.357	.	voice
.	.	8r	.	.	.	.	.	.	.	.	.
.	.	8F	on	.	.	.	.	.	.	.	.
.	.	8A-	the	.	.	.	.	.	.	.	.
=39	=39	=39	=39	=39	=39	=39	=39	=39	=39	=39	=39
1E-M	E-:maj	8.c	night-	1r	.	1r	.	.	87.493	.	voice
.	.	16B-	-shift.	.	.	.	.	.	.	.	.
.	.	4r	.	.	.	.	.	.	.	.	.
.	.	2r	.	.	.	.	.	.	.	.	.
=40	=40	=40	=40	=40	=40	=40	=40	=40	=40	=40	=40
1E-M	E-:maj	2r	.	1r	.	1r	.	.	89.763	.	voice
.	.	8r	.	.	.	.	.	.	.	.	.
.	.	8c	I	.	.	.	.	.	.	.	.
.	.	8B-	bet	.	.	.	.	.	.	.	.
.	.	8A-	you're	.	.	.	.	.	.	.	.
=41	=41	=41	=41	=41	=41	=41	=41	=41	=41	=41	=41
1D-M	D-:maj	16B-	sing-	1r	.	1r	.	.	92.034	newline	voice
.	.	8F	-in'	.	.	.	.	.	.	.	.
.	.	[16A-	proud	.	.	.	.	D	.	.	.
.	.	4A-_	_	.	.	.	.	.	.	.	.
.	.	8A-]	.	.	.	.	.	.	.	.	.
.	.	8r	.	.	.	.	.	.	.	.	.
.	.	4r	.	.	.	.	.	.	.	.	.
=42	=42	=42	=42	=42	=42	=42	=42	=42	=42	=42	=42
1D-M	D-:maj	4r	.	1r	.	1r	.	.	94.33	.	voice
.	.	8r	.	.	.	.	.	.	.	.	.
.	.	[8A-	Oh,	.	.	.	.	.	.	.	.
.	.	8A-]	_	.	.	.	.	.	.	.	.
.	.	8c	I	.	.	.	.	.	.	.	.
.	.	8B-	bet	.	.	.	.	.	.	.	.
.	.	8A-	you'll	.	.	.	.	.	.	.	.
=43	=43	=43	=43	=43	=43	=43	=43	=43	=43	=43	=43
1A-M	A-:maj	16B-	pull	1r	.	1r	.	.	96.626	.	voice
.	.	8F	a	.	.	.	.	.	.	.	.
.	.	[16A-	crowd	.	.	.	.	D	.	.	.
.	.	4A-_	_	.	.	.	.	.	.	.	.
.	.	8A-]	_	.	.	.	.	.	.	.	.
.	.	8r	.	.	.	.	.	.	.	.	.
.	.	4r	.	.	.	.	.	.	.	.	.
=44	=44	=44	=44	=44	=44	=44	=44	=44	=44	=44	=44
2A-M	A-:maj	2r	.	1r	.	1r	.	.	98.922	.	voice
2E-M	E-:maj	8r	.	.	.	.	.	.	100.07	.	voice
.	.	16c	Gon-	.	.	.	.	.	.	.	.
.	.	16c	-na	.	.	.	.	.	.	.	.
.	.	8e-	be	.	.	.	.	.	.	.	.
.	.	8e-	a	.	.	.	.	.	.	.	.
=45	=45	=45	=45	=45	=45	=45	=45	=45	=45	=45	=45
*	*	*	*	*clefG2	*	*	*	*	*	*	*
1A-M	A-:maj	8.f	long	8.c 8.e- 8.a-	Long	1r	.	.	101.218	newline	voice
.	.	[16e-	night,	[16c [16e- [16a-	night!	.	.	E	.	.	.
.	.	8e-]	_	4c_ 4e-_ 4a-_	_	.	.	.	.	.	.
.	.	8f	_	.	.	.	.	.	.	.	.
.	.	8r	.	4.c] 4.e-] 4.a-]	_	.	.	.	.	.	.
.	.	8F	it's	.	.	.	.	.	.	.	.
.	.	16A-	gon-	.	.	.	.	.	.	.	.
.	.	16A-	-na	.	.	.	.	.	.	.	.
.	.	8A-	be	8r	.	.	.	.	.	.	.
=46	=46	=46	=46	=46	=46	=46	=46	=46	=46	=46	=46
*	*	*	*	*clefF4	*	*	*	*	*	*	*
2Fm	F:min	16c-	al	16c 16e- 16a-	Al	1r	.	.	103.503	.	voice
.	.	8B-	_	8B- 8d- 8f	_	.	.	.	.	.	.
.	.	16B-	right,	[16A- [16c [16e-	right!	.	.	E	.	.	.
.	.	[4A-	_	4A-_ 4c_ 4e-_	_	.	.	.	.	.	.
2D-M	D-:maj	8A-]	_	8A-] 8c] 8e-]	_	.	.	.	104.645	.	voice
.	.	8r	.	8r	.	.	.	.	.	.	.
.	.	8F	on	4r	.	.	.	.	.	.	.
.	.	8A-	the	.	.	.	.	.	.	.	.
=47	=47	=47	=47	=47	=47	=47	=47	=47	=47	=47	=47
1E-M	E-:maj	8.c	night-	1r	.	1r	.	.	105.788	.	voice
.	.	16B-	-shift.	.	.	.	.	.	.	.	.
.	.	4r	.	.	.	.	.	.	.	.	.
.	.	2r	.	.	.	.	.	.	.	.	.
=48	=48	=48	=48	=48	=48	=48	=48	=48	=48	=48	=48
1E-M	E-:maj	2r	.	1r	.	1r	.	.	108.073	.	voice
.	.	8r	.	.	.	.	.	.	.	.	.
.	.	8c	You	.	.	.	.	.	.	.	.
.	.	8B-	found	.	.	.	.	.	.	.	.
.	.	8A-	a-	.	.	.	.	.	.	.	.
=49	=49	=49	=49	=49	=49	=49	=49	=49	=49	=49	=49
1D-M	D-:maj	16B-	-no-	1r	.	1r	.	.	110.357	newline	voice
.	.	8F	-ther	.	.	.	.	.	.	.	.
.	.	[16A-	home,	.	.	.	.	F	.	.	.
.	.	4A-]	_	.	.	.	.	.	.	.	.
.	.	8r	.	.	.	.	.	.	.	.	.
.	.	8c	I	.	.	.	.	.	.	.	.
.	.	8e-	know	.	.	.	.	.	.	.	.
.	.	8e-	you're	.	.	.	.	.	.	.	.
=50	=50	=50	=50	=50	=50	=50	=50	=50	=50	=50	=50
1E-M	E-:maj	8f	not	1r	.	1r	.	.	112.645	.	voice
.	.	16f	a-	.	.	.	.	.	.	.	.
.	.	[16e-	-lone,	.	.	.	.	F	.	.	.
.	.	8e-]	_	.	.	.	.	.	.	.	.
.	.	8f	_	.	.	.	.	.	.	.	.
.	.	4r	.	.	.	.	.	.	.	.	.
.	.	8F	on	.	.	.	.	.	.	.	.
.	.	8A-	the	.	.	.	.	.	.	.	.
=51	=51	=51	=51	=51	=51	=51	=51	=51	=51	=51	=51
*	*	*	*	*clefG2	*	*	*	*	*	*	*
1A-M	A-:maj	8.B-	night-	8.d- 8.f 8.a-	Night-	1r	.	.	114.932	.	voice
.	.	16A-	-shift!	16c 16e- 16a-	-shift!	.	.	.	.	.	.
.	.	4r	.	4r	.	.	.	.	.	.	.
.	.	4r	.	2r	.	.	.	.	.	.	.
.	.	8r	.	.	.	.	.	.	.	.	.
.	.	16c-	Oh!	.	.	.	.	.	.	.	.
.	.	16B-	_	.	.	.	.	.	.	.	.
=52	=52	=52	=52	=52	=52	=52	=52	=52	=52	=52	=52
1Fm	F:min	2r	.	1r	.	1r	.	.	117.219	.	voice
.	.	8r	.	.	.	.	.	.	.	.	.
.	.	8c	You	.	.	.	.	.	.	.	.
.	.	8B-	found	.	.	.	.	.	.	.	.
.	.	8A-	a-	.	.	.	.	.	.	.	.
=53	=53	=53	=53	=53	=53	=53	=53	=53	=53	=53	=53
1D-M	D-:maj	16B-	-no-	1r	.	1r	.	.	119.507	newline	voice
.	.	8F	-ther	.	.	.	.	.	.	.	.
.	.	[16A-	home,	.	.	.	.	F	.	.	.
.	.	4A-]	_	.	.	.	.	.	.	.	.
.	.	8r	.	.	.	.	.	.	.	.	.
.	.	8c	I	.	.	.	.	.	.	.	.
.	.	8e-	know	.	.	.	.	.	.	.	.
.	.	8e-	you're	.	.	.	.	.	.	.	.
=54	=54	=54	=54	=54	=54	=54	=54	=54	=54	=54	=54
1E-M	E-:maj	8f	not	1r	.	1r	.	.	121.782	.	voice
.	.	16f	a-	.	.	.	.	.	.	.	.
.	.	[16e-	-lone,	.	.	.	.	F	.	.	.
.	.	8e-]	_	.	.	.	.	.	.	.	.
.	.	8f	_	.	.	.	.	.	.	.	.
.	.	4r	.	.	.	.	.	.	.	.	.
.	.	8F	on	.	.	.	.	.	.	.	.
.	.	8A-	the	.	.	.	.	.	.	.	.
=55	=55	=55	=55	=55	=55	=55	=55	=55	=55	=55	=55
*>Letter>B2	*>Letter>B2	*>Letter>B2	*>Letter>B2	*>Letter>B2	*>Letter>B2	*>Letter>B2	*>Letter>B2	*>Letter>B2	*>Letter>B2	*>Letter>B2	*>Letter>B2
*>Label>Instrumental	*>Label>Instrumental	*>Label>Instrumental	*>Label>Instrumental	*>Label>Instrumental	*>Label>Instrumental	*>Label>Instrumental	*>Label>Instrumental	*>Label>Instrumental	*>Label>Instrumental	*>Label>Instrumental	*>Label>Instrumental
1A-M	A-:maj	8.B-	night-	1r	.	1r	.	.	124.058	newline	synthesizer
.	.	16A-	-shift!	.	.	.	.	.	.	.	.
.	.	4r	.	.	.	.	.	.	.	.	.
.	.	2r	.	.	.	.	.	.	.	.	.
=56	=56	=56	=56	=56	=56	=56	=56	=56	=56	=56	=56
2Fm	F:min	1r	.	1r	.	1r	.	.	126.35	.	synthesizer
2D-M	D-:maj	.	.	.	.	.	.	.	127.497	.	synthesizer
=57	=57	=57	=57	=57	=57	=57	=57	=57	=57	=57	=57
1E-M	E-:maj	1r	.	1r	.	1r	.	.	128.643	.	synthesizer
=58	=58	=58	=58	=58	=58	=58	=58	=58	=58	=58	=58
1E-M	E-:maj	1r	.	1r	.	1r	.	.	130.935	.	synthesizer
=59	=59	=59	=59	=59	=59	=59	=59	=59	=59	=59	=59
*>Letter>B	*>Letter>B	*>Letter>B	*>Letter>B	*>Letter>B	*>Letter>B	*>Letter>B	*>Letter>B	*>Letter>B	*>Letter>B	*>Letter>B	*>Letter>B
*>Label>Verse	*>Label>Verse	*>Label>Verse	*>Label>Verse	*>Label>Verse	*>Label>Verse	*>Label>Verse	*>Label>Verse	*>Label>Verse	*>Label>Verse	*>Label>Verse	*>Label>Verse
1A-M	A-:maj	4.c	Ja-	1r	.	1r	.	.	133.227	newline	voice
.	.	8e-	-ckie,	.	.	.	.	.	.	.	.
.	.	4r	.	.	.	.	.	.	.	.	.
.	.	8r	.	.	.	.	.	.	.	.	.
.	.	[8c	Mmm	.	.	.	.	.	.	.	.
=60	=60	=60	=60	=60	=60	=60	=60	=60	=60	=60	=60
2Fm	F:min	16c]	_	1r	.	1r	.	.	135.509	.	voice
.	.	16B-	_	.	.	.	.	.	.	.	.
.	.	8A-	_	.	.	.	.	.	.	.	.
.	.	4r	.	.	.	.	.	.	.	.	.
2D-M	D-:maj	8r	.	.	.	.	.	.	136.649	.	voice
.	.	8c	Hey	.	.	.	.	.	.	.	.
.	.	8B-	what	.	.	.	.	.	.	.	.
.	.	8A-	ya	.	.	.	.	.	.	.	.
=61	=61	=61	=61	=61	=61	=61	=61	=61	=61	=61	=61
1E-M	E-:maj	16c	do-	1r	.	1r	.	.	137.79	.	voice
.	.	8B-	-in'	.	.	.	.	.	.	.	.
.	.	[16B-	now?	.	.	.	.	G	.	.	.
.	.	4B-_	_	.	.	.	.	.	.	.	.
.	.	8B-]	_	.	.	.	.	.	.	.	.
.	.	8r	.	.	.	.	.	.	.	.	.
.	.	4r	.	.	.	.	.	.	.	.	.
=62	=62	=62	=62	=62	=62	=62	=62	=62	=62	=62	=62
1E-M	E-:maj	2r	.	1r	.	1r	.	.	140.072	.	voice
.	.	8r	.	.	.	.	.	.	.	.	.
.	.	8c	It	.	.	.	.	.	.	.	.
.	.	8B-	seems	.	.	.	.	.	.	.	.
.	.	8A-	like	.	.	.	.	.	.	.	.
=63	=63	=63	=63	=63	=63	=63	=63	=63	=63	=63	=63
1D-M	D-:maj(9)	8B-	yes-	1r	.	1r	.	.	142.353	newline	voice
.	.	16F	-ter-	.	.	.	.	.	.	.	.
.	.	[16A-	-day,	.	.	.	.	.	.	.	.
.	.	4A-_	_	.	.	.	.	.	.	.	.
.	.	4A-]	_	.	.	.	.	.	.	.	.
.	.	4r	.	.	.	.	.	.	.	.	.
=64	=64	=64	=64	=64	=64	=64	=64	=64	=64	=64	=64
1D-M	D-:maj(9)	2r	.	1r	.	1r	.	.	144.639	.	voice
.	.	8r	.	.	.	.	.	.	.	.	.
.	.	8c	when	.	.	.	.	.	.	.	.
.	.	8B-	we	.	.	.	.	.	.	.	.
.	.	8A-	weere	.	.	.	.	.	.	.	.
=65	=65	=65	=65	=65	=65	=65	=65	=65	=65	=65	=65
.	.	8B-q	_	.	.	.	.	.	.	.	.
1E-M	E-:maj	8.c	wor-	1r	.	1r	.	.	146.925	.	voice
.	.	8B-q	_	.	.	.	.	.	.	.	.
.	.	[16c	-kin'	.	.	.	.	.	.	.	.
.	.	8c]	_	.	.	.	.	.	.	.	.
.	.	[8B-	out	.	.	.	.	G	.	.	.
.	.	2B-]	.	.	.	.	.	.	.	.	.
=66	=66	=66	=66	=66	=66	=66	=66	=66	=66	=66	=66
1E-M	E-:maj	1r	.	1r	.	1r	.	.	149.211	.	voice
=67	=67	=67	=67	=67	=67	=67	=67	=67	=67	=67	=67
.	.	8B-q	_	.	.	.	.	.	.	.	.
1A-M	A-:maj	4.c	Ja-	1r	.	1r	.	.	151.497	newline	voice
.	.	8e-	-ckie,	.	.	.	.	.	.	.	.
.	.	4r	.	.	.	.	.	.	.	.	.
.	.	16c	whoa	.	.	.	.	.	.	.	.
.	.	16B-	_	.	.	.	.	.	.	.	.
.	.	8A-	.	.	.	.	.	.	.	.	.
=68	=68	=68	=68	=68	=68	=68	=68	=68	=68	=68	=68
2Fm	F:min	2r	.	1r	.	1r	.	.	153.783	.	voice
2D-M	D-:maj	8r	.	.	.	.	.	.	154.926	.	voice
.	.	8c	You	.	.	.	.	.	.	.	.
.	.	8B-	set	.	.	.	.	.	.	.	.
.	.	8A-	the	.	.	.	.	.	.	.	.
=69	=69	=69	=69	=69	=69	=69	=69	=69	=69	=69	=69
.	.	8B-q	_	.	.	.	.	.	.	.	.
1E-M	E-:maj	8.c	world	1r	.	1r	.	.	156.069	.	voice
.	.	8cq	_	.	.	.	.	.	.	.	.
.	.	[16B-	on	.	.	.	.	.	.	.	.
.	.	8B-]	_	.	.	.	.	.	.	.	.
.	.	[8B-	fi	.	.	.	.	(H	.	.	.
.	.	8B-]	_	.	.	.	.	.	.	.	.
.	.	[8c	re!	.	.	.	.	h)	.	.	.
.	.	8c]	_	.	.	.	.	.	.	.	.
.	.	8r	.	.	.	.	.	.	.	.	.
=70	=70	=70	=70	=70	=70	=70	=70	=70	=70	=70	=70
1E-M	E-:maj	2r	.	1r	.	1r	.	.	158.355	.	voice
.	.	8r	.	.	.	.	.	.	.	.	.
.	.	8c	You	.	.	.	.	.	.	.	.
.	.	8B-	came	.	.	.	.	.	.	.	.
.	.	8A-	and	.	.	.	.	.	.	.	.
=71	=71	=71	=71	=71	=71	=71	=71	=71	=71	=71	=71
1D-M	D-:maj(9)	8.B-	gif-	1r	.	1r	.	(I	160.641	newline	voice
.	.	[16F	-ted	.	.	.	.	i)	.	.	.
.	.	8F]	_	.	.	.	.	.	.	.	.
.	.	[8A-	us,	.	.	.	.	.	.	.	.
.	.	2A-]	_	.	.	.	.	.	.	.	.
=72	=72	=72	=72	=72	=72	=72	=72	=72	=72	=72	=72
1D-M	D-:maj(9)	2r	.	1r	.	1r	.	.	162.923	.	voice
.	.	8r	.	.	.	.	.	.	.	.	.
.	.	8c	your	.	.	.	.	.	.	.	.
.	.	8B-	love	.	.	.	.	.	.	.	.
.	.	8A-	and	.	.	.	.	.	.	.	.
=73	=73	=73	=73	=73	=73	=73	=73	=73	=73	=73	=73
.	.	8B-q	_	.	.	.	.	.	.	.	.
1E-M	E-:maj	8.c	lif	1r	.	1r	.	(I	165.205	.	voice
.	.	8B-q	_	.	.	.	.	.	.	.	.
.	.	[16c	ted	.	.	.	.	i)	.	.	.
.	.	8c]	_	.	.	.	.	.	.	.	.
.	.	[8B-	us,	.	.	.	.	.	.	.	.
.	.	4B-]	_	.	.	.	.	.	.	.	.
.	.	4r	.	.	.	.	.	.	.	.	.
=74	=74	=74	=74	=74	=74	=74	=74	=74	=74	=74	=74
1E-M	E-:maj	8.c	high-	1r	.	1r	.	(G	167.487	.	voice
.	.	16d-	-er	.	.	.	.	g)	.	.	.
.	.	8r	.	.	.	.	.	.	.	.	.
.	.	8c	and	.	.	.	.	.	.	.	.
.	.	4e-	high-	.	.	.	.	(G	.	.	.
.	.	8f	-er!	.	.	.	.	g)	.	.	.
.	.	8e-	_	.	.	.	.	.	.	.	.
=75	=75	=75	=75	=75	=75	=75	=75	=75	=75	=75	=75
*>Letter>C	*>Letter>C	*>Letter>C	*>Letter>C	*>Letter>C	*>Letter>C	*>Letter>C	*>Letter>C	*>Letter>C	*>Letter>C	*>Letter>C	*>Letter>C
*>Label>Prechorus	*>Label>Prechorus	*>Label>Prechorus	*>Label>Prechorus	*>Label>Prechorus	*>Label>Prechorus	*>Label>Prechorus	*>Label>Prechorus	*>Label>Prechorus	*>Label>Prechorus	*>Label>Prechorus	*>Label>Prechorus
1Fm	F:min	8A-	Keep	1r	.	1r	.	.	169.768	newline	voice
.	.	16A-	it	.	.	.	.	.	.	.	.
.	.	16F	up,	.	.	.	.	.	.	.	.
.	.	4r	.	.	.	.	.	.	.	.	.
.	.	4r	.	.	.	.	.	.	.	.	.
.	.	16r	.	.	.	.	.	.	.	.	.
.	.	8.c	and	.	.	.	.	.	.	.	.
=76	=76	=76	=76	=76	=76	=76	=76	=76	=76	=76	=76
1B-m	B-:min	8.B-	we'll	1r	.	1r	.	.	172.054	.	voice
.	.	[16B-	be	.	.	.	.	.	.	.	.
.	.	8B-]	_	.	.	.	.	.	.	.	.
.	.	[8F	there,	.	.	.	.	.	.	.	.
.	.	4F]	_	.	.	.	.	.	.	.	.
.	.	4r	.	.	.	.	.	.	.	.	.
=77	=77	=77	=77	=77	=77	=77	=77	=77	=77	=77	=77
1E-M	E-:maj	8.c	at	1r	.	1r	.	.	174.34	.	voice
.	.	[16c	your	.	.	.	.	.	.	.	.
.	.	8c]	_	.	.	.	.	.	.	.	.
.	.	[8B-	side!	.	.	.	.	.	.	.	.
.	.	8B-]	_	.	.	.	.	.	.	.	.
.	.	8c	_	.	.	.	.	.	.	.	.
.	.	4r	.	.	.	.	.	.	.	.	.
=78	=78	=78	=78	=78	=78	=78	=78	=78	=78	=78	=78
1E-M	E-:maj	2r	.	1r	.	1r	.	.	176.626	.	voice
.	.	8.c	Oh,	.	.	.	.	.	.	.	.
.	.	[16B-	_	.	.	.	.	.	.	.	.
.	.	16B-]	_	.	.	.	.	.	.	.	.
.	.	16A-	_	.	.	.	.	.	.	.	.
.	.	8F	_	.	.	.	.	.	.	.	.
=79	=79	=79	=79	=79	=79	=79	=79	=79	=79	=79	=79
1Fm	F:min	8A-	say	1r	.	1r	.	.	178.912	newline	voice
.	.	16A-	you	.	.	.	.	.	.	.	.
.	.	16F	will,	.	.	.	.	.	.	.	.
.	.	4r	.	.	.	.	.	.	.	.	.
.	.	2r	.	.	.	.	.	.	.	.	.
=80	=80	=80	=80	=80	=80	=80	=80	=80	=80	=80	=80
1B-m	B-:min	8.B-	sing	1r	.	1r	.	.	181.215	.	voice
.	.	[16B-	your	.	.	.	.	.	.	.	.
.	.	8B-]	_	.	.	.	.	.	.	.	.
.	.	[8A-	songs,	.	.	.	.	.	.	.	.
.	.	4A-]	_	.	.	.	.	.	.	.	.
.	.	8r	.	.	.	.	.	.	.	.	.
.	.	8F	for-	.	.	.	.	.	.	.	.
=81	=81	=81	=81	=81	=81	=81	=81	=81	=81	=81	=81
1D-MM	D-:maj7	8A-	-e-	1r	.	1r	.	.	183.518	.	voice
.	.	16A-	-ver-	.	.	.	.	.	.	.	.
.	.	16F	-more,	.	.	.	.	.	.	.	.
.	.	8r	.	.	.	.	.	.	.	.	.
.	.	8A-	e-	.	.	.	.	.	.	.	.
.	.	16A-	-ver-	.	.	.	.	.	.	.	.
.	.	16F	-more,	.	.	.	.	.	.	.	.
.	.	8r	.	.	.	.	.	.	.	.	.
.	.	8A-	e-	.	.	.	.	.	.	.	.
.	.	16A-	-ver-	.	.	.	.	.	.	.	.
.	.	16F	-more...	.	.	.	.	.	.	.	.
=82	=82	=82	=82	=82	=82	=82	=82	=82	=82	=82	=82
1A-M	A-:maj	2r	.	1r	.	1r	.	.	185.821	.	voice
.	.	8r	.	.	.	.	.	.	.	.	.
.	.	16c	gon-	.	.	.	.	.	.	.	.
.	.	16c	-na	.	.	.	.	.	.	.	.
.	.	8e-	be	.	.	.	.	.	.	.	.
.	.	8c	some	.	.	.	.	.	.	.	.
=83	=83	=83	=83	=83	=83	=83	=83	=83	=83	=83	=83
*>Letter>D	*>Letter>D	*>Letter>D	*>Letter>D	*>Letter>D	*>Letter>D	*>Letter>D	*>Letter>D	*>Letter>D	*>Letter>D	*>Letter>D	*>Letter>D
*>Label>Chorus	*>Label>Chorus	*>Label>Chorus	*>Label>Chorus	*>Label>Chorus	*>Label>Chorus	*>Label>Chorus	*>Label>Chorus	*>Label>Chorus	*>Label>Chorus	*>Label>Chorus	*>Label>Chorus
1A-M	A-:maj	8.f 8.b-	sweet	8.A- 8.e-	Sweet	1r	.	.	188.123	newline	voice
.	.	[16e- [16a-	sounds,	[16A- [16e-	sounds!	.	.	D	.	.	.
.	.	4e-_ 4a-_	_	4A-_ 4e-_	_	.	.	.	.	.	.
.	.	4e-] 4a-]	_	4.A-] 4.e-]	_	.	.	.	.	.	.
.	.	4r	.	.	.	.	.	.	.	.	.
.	.	.	.	8r	.	.	.	.	.	.	.
=84	=84	=84	=84	=84	=84	=84	=84	=84	=84	=84	=84
*	*	*	*	*clefG2	*	*	*	*	*	*	*
2Fm	F:min	8.c 8.e-	co-	8.c 8.e- 8.a-	Co-	1r	.	.	190.391	.	voice
.	.	16B- 16d-	-min'	[16c [16e- [16a-	-min'	.	.	.	.	.	.
.	.	8A- 8c	_	8c] 8e-] 8a-]	_	.	.	.	.	.	.
.	.	16B- 16d-	down,	[8B- [8d- [8f [8b-	down!	.	.	D	.	.	.
.	.	[16A- [16c	_	.	.	.	.	.	.	.	.
2D-M	D-:maj	4A-] 4c]	_	8B-] 8d-] 8f] 8b-]	_	.	.	.	191.525	.	voice
.	.	.	.	8r	.	.	.	.	.	.	.
.	.	8F	on	4r	.	.	.	.	.	.	.
.	.	8A-	the	.	.	.	.	.	.	.	.
=85	=85	=85	=85	=85	=85	=85	=85	=85	=85	=85	=85
1E-M	E-:maj	8.c	night-	1r	.	1r	.	.	192.659	.	voice
.	.	16B-	-shift!	.	.	.	.	.	.	.	.
.	.	4r	.	.	.	.	.	.	.	.	.
.	.	2r	.	.	.	.	.	.	.	.	.
=86	=86	=86	=86	=86	=86	=86	=86	=86	=86	=86	=86
1E-M	E-:maj	2r	.	1r	.	1r	.	.	194.928	.	voice
.	.	8r	.	.	.	.	.	.	.	.	.
.	.	8c 8e-	I	.	.	.	.	.	.	.	.
.	.	8c 8e-	bet	.	.	.	.	.	.	.	.
.	.	8A- 8e-	you're	.	.	.	.	.	.	.	.
=87	=87	=87	=87	=87	=87	=87	=87	=87	=87	=87	=87
1D-M	D-:maj	16B- 16e-	sing-	1r	.	1r	.	.	197.196	newline	voice
.	.	8F 8d-	-in'	.	.	.	.	.	.	.	.
.	.	16A- [16d-	proud	.	.	.	.	D	.	.	.
.	.	[4A- 4d-_	_	.	.	.	.	.	.	.	.
.	.	8A-] 8d-]	_	.	.	.	.	.	.	.	.
.	.	16c 16f	_	.	.	.	.	.	.	.	.
.	.	16c 16f	.	.	.	.	.	.	.	.	.
.	.	4r	.	.	.	.	.	.	.	.	.
=88	=88	=88	=88	=88	=88	=88	=88	=88	=88	=88	=88
1D-M	D-:maj	2r	.	1r	.	1r	.	.	199.476	.	voice
.	.	8A-	Oh,	.	.	.	.	.	.	.	.
.	.	8c 8d-	I	.	.	.	.	.	.	.	.
.	.	8B- 8d-	bet	.	.	.	.	.	.	.	.
.	.	8A- 8d-	you'll	.	.	.	.	.	.	.	.
=89	=89	=89	=89	=89	=89	=89	=89	=89	=89	=89	=89
1A-M	A-:maj	16B- 16d-	pull	1r	.	1r	.	.	201.755	.	voice
.	.	8F 8c	a	.	.	.	.	.	.	.	.
.	.	[16A- [16c	crowd	.	.	.	.	D	.	.	.
.	.	4A-_ 4c_	_	.	.	.	.	.	.	.	.
.	.	16A-] 16c]	_	.	.	.	.	.	.	.	.
.	.	16B-	_	.	.	.	.	.	.	.	.
.	.	8A-	_	.	.	.	.	.	.	.	.
.	.	4r	.	.	.	.	.	.	.	.	.
=90	=90	=90	=90	=90	=90	=90	=90	=90	=90	=90	=90
1A-M	A-:maj	2r	.	1r	.	1r	.	.	204.035	.	voice
.	.	8r	.	.	.	.	.	.	.	.	.
.	.	16c	Gon-	.	.	.	.	.	.	.	.
.	.	16c	-na	.	.	.	.	.	.	.	.
.	.	8e-	be	.	.	.	.	.	.	.	.
.	.	8e-	a	.	.	.	.	.	.	.	.
=91	=91	=91	=91	=91	=91	=91	=91	=91	=91	=91	=91
*	*	*	*	*	*	*clefF4	*	*	*	*	*
1A-M	A-:maj	8.f	long	4r	.	8.A- 8.e-	Long	.	206.315	newline	voice
.	.	[16e-	night,	.	.	[16A- [16e-	night!	E	.	.	.
.	.	8e-]	_	16c	Gon-	4A-_ 4e-_	_	.	.	.	.
.	.	.	.	16c	-na	.	.	.	.	.	.
.	.	8f	_	16e-	be	.	.	.	.	.	.
.	.	.	.	16e-	a	.	.	.	.	.	.
.	.	8r	.	8.f	long	4.A-] 4.e-]	_	.	.	.	.
.	.	8F	it's	.	.	.	.	.	.	.	.
.	.	.	.	[16e-	night!	.	.	E	.	.	.
.	.	16A-	gon-	8e-]	_	.	.	.	.	.	.
.	.	16A-	-na	.	.	.	.	.	.	.	.
.	.	8A-	be	8f	_	8r	.	.	.	.	.
=92	=92	=92	=92	=92	=92	=92	=92	=92	=92	=92	=92
2Fm	F:min	8c-	al	1r	.	4.c 4.e- 4.a-	Al-	.	208.602	.	voice
.	.	8B-	_	.	.	.	.	.	.	.	.
.	.	8A-	_	.	.	.	.	.	.	.	.
.	.	[8A-	right,	.	.	[8d- [8f [8b-	-right!	E	.	.	.
2D-M	D-:maj	8A-]	_	.	.	4d-] 4f] 4b-]	_	.	209.746	.	voice
.	.	8r	.	.	.	.	.	.	.	.	.
.	.	8F	on	.	.	4r	.	.	.	.	.
.	.	8A-	the	.	.	.	.	.	.	.	.
=93	=93	=93	=93	=93	=93	=93	=93	=93	=93	=93	=93
1E-M	E-:maj	8.c 8.f	night-	1r	.	1r	.	.	210.89	.	voice
.	.	16B- 16e-	-shift!	.	.	.	.	.	.	.	.
.	.	4r	.	.	.	.	.	.	.	.	.
.	.	2r	.	.	.	.	.	.	.	.	.
=94	=94	=94	=94	=94	=94	=94	=94	=94	=94	=94	=94
1E-M	E-:maj	2r	.	1r	.	1r	.	.	213.177	.	voice
.	.	8r	.	.	.	.	.	.	.	.	.
.	.	8c 8e-	You	.	.	.	.	.	.	.	.
.	.	8B- 8d-	found	.	.	.	.	.	.	.	.
.	.	8A- 8c	a-	.	.	.	.	.	.	.	.
=95	=95	=95	=95	=95	=95	=95	=95	=95	=95	=95	=95
1D-M	D-:maj	16B- 16e-	-no-	1r	.	1r	.	.	215.464	newline	voice
.	.	8F 8d-	-ther	.	.	.	.	.	.	.	.
.	.	[16A- [16d-	home,	.	.	.	.	F	.	.	.
.	.	4A-] 4d-]	_	.	.	.	.	.	.	.	.
.	.	8r	.	.	.	.	.	.	.	.	.
.	.	8c 8e-	I	.	.	.	.	.	.	.	.
.	.	8e-	know	.	.	.	.	.	.	.	.
.	.	8e- 8a-	you're	.	.	.	.	.	.	.	.
=96	=96	=96	=96	=96	=96	=96	=96	=96	=96	=96	=96
1E-M	E-:maj	8f 8a-	not	1r	.	1r	.	.	217.751	.	voice
.	.	16f 16a-	a-	.	.	.	.	.	.	.	.
.	.	[16e- [16g	-lone,	.	.	.	.	F	.	.	.
.	.	8e-] 8g]	_	.	.	.	.	.	.	.	.
.	.	8f 8a-	_	.	.	.	.	.	.	.	.
.	.	4r	.	.	.	.	.	.	.	.	.
.	.	8A- 8c	on	.	.	.	.	.	.	.	.
.	.	8G 8B-	the	.	.	.	.	.	.	.	.
=97	=97	=97	=97	=97	=97	=97	=97	=97	=97	=97	=97
1Fm	F:min	8.A- 8.c	night-	1r	.	1r	.	.	220.039	.	voice
.	.	16F 16A-	-shift!	.	.	.	.	.	.	.	.
.	.	4r	.	.	.	.	.	.	.	.	.
.	.	8r	.	.	.	.	.	.	.	.	.
.	.	16c	Gon-	.	.	.	.	.	.	.	.
.	.	16c	-na	.	.	.	.	.	.	.	.
.	.	8e-	be	.	.	.	.	.	.	.	.
.	.	8c	some	.	.	.	.	.	.	.	.
=98	=98	=98	=98	=98	=98	=98	=98	=98	=98	=98	=98
*>Letter>D	*>Letter>D	*>Letter>D	*>Letter>D	*>Letter>D	*>Letter>D	*>Letter>D	*>Letter>D	*>Letter>D	*>Letter>D	*>Letter>D	*>Letter>D
*>Label>Chorus	*>Label>Chorus	*>Label>Chorus	*>Label>Chorus	*>Label>Chorus	*>Label>Chorus	*>Label>Chorus	*>Label>Chorus	*>Label>Chorus	*>Label>Chorus	*>Label>Chorus	*>Label>Chorus
1A-M	A-:maj	8.f	sweet	4r	.	1r	.	.	222.327	->newline	voice
.	.	[16e-	sounds!	.	.	.	.	D	.	.	.
.	.	4e-]	_	8r	.	.	.	.	.	.	.
.	.	.	.	[8ee-	Sweet	.	.	.	.	.	.
.	.	8e-	_	8ee-]	_	.	.	.	.	.	.
.	.	8f	_	8dd-	_	.	.	.	.	.	.
.	.	4r	.	16cc	sounds!	.	.	D	.	.	.
.	.	.	.	16b-	_	.	.	.	.	.	.
.	.	.	.	8a-	_	.	.	.	.	.	.
=99	=99	=99	=99	=99	=99	=99	=99	=99	=99	=99	=99
2Fm	F:min	8c	Co-	1r	.	1r	.	.	224.599	.	voice
.	.	16B-	-min'	.	.	.	.	.	.	.	.
.	.	[16A-	_	.	.	.	.	.	.	.	.
.	.	8A-]	_	.	.	.	.	.	.	.	.
.	.	16B-	down,	.	.	.	.	D	.	.	.
.	.	[16A-	_	.	.	.	.	.	.	.	.
2D-M	D-:maj	4A-]	_	.	.	.	.	.	225.734	.	voice
.	.	8F	on	.	.	.	.	.	.	.	.
.	.	8A-	the	.	.	.	.	.	.	.	.
=100	=100	=100	=100	=100	=100	=100	=100	=100	=100	=100	=100
1E-M	E-:maj	8.c	night-	1r	.	1r	.	.	226.87	.	voice
.	.	16B-	-shift	.	.	.	.	.	.	.	.
.	.	8r	.	.	.	.	.	.	.	.	.
.	.	[8e-	Oh,	.	.	.	.	.	.	.	.
.	.	4e-]	_	.	.	.	.	.	.	.	.
.	.	8e-	on	.	.	.	.	.	.	.	.
.	.	8f	the	.	.	.	.	.	.	.	.
=101	=101	=101	=101	=101	=101	=101	=101	=101	=101	=101	=101
1E-M	E-:maj	8.c	night	1r	.	1r	.	.	229.142	.	voice
.	.	16B-	shift	.	.	.	.	.	.	.	.
.	.	4r	.	.	.	.	.	.	.	.	.
.	.	8r	.	.	.	.	.	.	.	.	.
.	.	8c	I	.	.	.	.	.	.	.	.
.	.	8B-	bet	.	.	.	.	.	.	.	.
.	.	8A-	you're	.	.	.	.	.	.	.	.
=102	=102	=102	=102	=102	=102	=102	=102	=102	=102	=102	=102
1D-M	D-:maj	16B-	sing-	2r	.	1r	.	.	231.414	newline	voice
.	.	8F	-in'	.	.	.	.	.	.	.	.
.	.	[16A-	proud	.	.	.	.	D	.	.	.
.	.	4A-_	_	.	.	.	.	.	.	.	.
.	.	8A-]	_	8e-	Know	.	.	.	.	.	.
.	.	8c	_	8e-	you're	.	.	.	.	.	.
.	.	8c	_	8e-	sing-	.	.	.	.	.	.
.	.	8r	.	16e-	-in	.	.	.	.	.	.
.	.	.	.	[16e-	proud!	.	.	D	.	.	.
=103	=103	=103	=103	=103	=103	=103	=103	=103	=103	=103	=103
1D-M	D-:maj	4r	.	16e-]	_	1r	.	.	233.701	.	voice
.	.	.	.	[8.d-	_	.	.	.	.	.	.
.	.	8r	.	8d-]	_	.	.	.	.	.	.
.	.	[8A-	Oh,	8e-	_	.	.	.	.	.	.
.	.	8A-]	_	2r	.	.	.	.	.	.	.
.	.	8c	I	.	.	.	.	.	.	.	.
.	.	8B-	bet	.	.	.	.	.	.	.	.
.	.	8A-	you'll	.	.	.	.	.	.	.	.
=104	=104	=104	=104	=104	=104	=104	=104	=104	=104	=104	=104
*	*	*	*	*clefF4	*	*	*	*	*	*	*
1A-M	A-:maj	8B-	pull	2r	.	1r	.	.	235.988	.	voice
.	.	16F	a	.	.	.	.	.	.	.	.
.	.	[16A-	crowd	.	.	.	.	D	.	.	.
.	.	4A-_	_	.	.	.	.	.	.	.	.
.	.	4A-]	_	4r	.	.	.	.	.	.	.
.	.	4r	.	8c	Oh,	.	.	.	.	.	.
.	.	.	.	[8A-	yeah	.	.	.	.	.	.
=105	=105	=105	=105	=105	=105	=105	=105	=105	=105	=105	=105
1A-M	A-:maj	2r	.	4.A-]	.	1r	.	.	238.275	.	voice
.	.	.	.	8r	.	.	.	.	.	.	.
.	.	8r	.	2r	.	.	.	.	.	.	.
.	.	16c	Gon-	.	.	.	.	.	.	.	.
.	.	16c	-na	.	.	.	.	.	.	.	.
.	.	8e-	be	.	.	.	.	.	.	.	.
.	.	8e-	a	.	.	.	.	.	.	.	.
=106	=106	=106	=106	=106	=106	=106	=106	=106	=106	=106	=106
*>Label>>Fadeout	*>Label>>Fadeout	*>Label>>Fadeout	*>Label>>Fadeout	*>Label>>Fadeout	*>Label>>Fadeout	*>Label>>Fadeout	*>Label>>Fadeout	*>Label>>Fadeout	*>Label>>Fadeout	*>Label>>Fadeout	*>Label>>Fadeout
1A-M	A-:maj	8.f	long	4r	.	8.A- 8.e-	_	.	240.562	newline	voice
.	.	[16e-	night!	.	.	[16A- [16e-	_	E	.	.	.
.	.	8e-]	_	16c	Gon-	4A-_ 4e-_	_	.	.	.	.
.	.	.	.	16c	-na	.	.	.	.	.	.
.	.	8f	_	8e-	be	.	.	.	.	.	.
.	.	8r	.	4f	al	4.A-] 4.e-]	_	.	.	.	.
.	.	8F	It's	.	.	.	.	.	.	.	.
.	.	16A-	gon-	8e-	_	.	.	.	.	.	.
.	.	16A-	-na	.	.	.	.	.	.	.	.
.	.	16A-	be	8f	_	8r	.	.	.	.	.
.	.	[16c	al	.	.	.	.	.	.	.	.
=107	=107	=107	=107	=107	=107	=107	=107	=107	=107	=107	=107
*	*	*	*	*	*	*clefG2	*	*	*	*	*
2Fm	F:min	16c-	_	4c	_	4.c 4.e- 4.a-	_	.	242.852	.	voice
.	.	16B-	_	.	.	.	.	.	.	.	.
.	.	16A-	_	.	.	.	.	.	.	.	.
.	.	[16A-	right,	.	.	.	.	E	.	.	.
.	.	4A-_	_	8B-	_	.	.	.	.	.	.
.	.	.	.	8c	_	[8d- [8f [8b-	_	.	.	.	.
2D-M	D-:maj	8A-]	_	8B-	right	4d-] 4f] 4b-]	_	.	243.997	.	voice
.	.	8r	.	[8A-	_	.	.	.	.	.	.
.	.	8F	on	4A-]	.	4r	.	.	.	.	.
.	.	8A-	the	.	.	.	.	.	.	.	.
=108	=108	=108	=108	=108	=108	=108	=108	=108	=108	=108	=108
1E-M	E-:maj	8.c] 8.f	night-	2r	.	1r	.	.	245.142	.	voice
.	.	16B- 16e-	-shift!	.	.	.	.	.	.	.	.
.	.	4r	.	.	.	.	.	.	.	.	.
.	.	2r	.	4r	.	.	.	.	.	.	.
.	.	.	.	8F	On	.	.	.	.	.	.
.	.	.	.	8A-	the	.	.	.	.	.	.
=109	=109	=109	=109	=109	=109	=109	=109	=109	=109	=109	=109
1E-M	E-:maj	2r	.	8.c	night-	1r	.	.	247.433	.	voice
.	.	.	.	16B-	-shift!	.	.	.	.	.	.
.	.	.	.	4r	.	.	.	.	.	.	.
.	.	8r	.	2r	.	.	.	.	.	.	.
.	.	8e-	You	.	.	.	.	.	.	.	.
.	.	8d-	found	.	.	.	.	.	.	.	.
.	.	16c-	a-	.	.	.	.	.	.	.	.
.	.	16d-	-no	.	.	.	.	.	.	.	.
=110	=110	=110	=110	=110	=110	=110	=110	=110	=110	=110	=110
1D-M	D-:maj	16d-	_	1r	.	1r	.	.	249.723	newline	voice
.	.	16c-	ther	.	.	.	.	.	.	.	.
.	.	8d-	home,	.	.	.	.	F	.	.	.
.	.	16c-	_	.	.	.	.	.	.	.	.
.	.	16A-	_	.	.	.	.	.	.	.	.
.	.	8r	.	.	.	.	.	.	.	.	.
.	.	8r	.	.	.	.	.	.	.	.	.
.	.	8c	I	.	.	.	.	.	.	.	.
.	.	8e- 8a-	know	.	.	.	.	.	.	.	.
.	.	8e- 8a-	you're	.	.	.	.	.	.	.	.
=111	=111	=111	=111	=111	=111	=111	=111	=111	=111	=111	=111
1D-M	D-:maj	8f 8a-	not	1r	.	1r	.	.	251.73	.	voice
.	.	16f 16a-	a-	.	.	.	.	.	.	.	.
.	.	[16g- [16b-	-lone!	.	.	.	.	F	.	.	.
.	.	16g-] 16b-]	_	.	.	.	.	.	.	.	.
.	.	16f 16a-	_	.	.	.	.	.	.	.	.
.	.	8e- 8g	_	.	.	.	.	.	.	.	.
.	.	4r	.	.	.	.	.	.	.	.	.
.	.	8F	On	.	.	.	.	.	.	.	.
.	.	8A-	the	.	.	.	.	.	.	.	.
=112	=112	=112	=112	=112	=112	=112	=112	=112	=112	=112	=112
1A-M	A-:maj	8.B-	night-	1r	.	8.d- 8.f 8.a-	Night-	.	253.738	.	voice
.	.	16A-	-shift!	.	.	16c 16e- 16a-	-shift!	.	.	.	.
.	.	4r	.	.	.	4r	.	.	.	.	.
.	.	2r	.	.	.	2r	.	.	.	.	.
=113	=113	=113	=113	=113	=113	=113	=113	=113	=113	=113	=113
2A-M	A-:maj	1r	.	1r	.	1r	.	.	255.746	.	voice
2E-M	E-:maj	.	.	.	.	.	.	.	256.75	.	voice
=114	=114	=114	=114	=114	=114	=114	=114	=114	=114	=114	=114
1A-M	A-:maj	1r	.	1r	.	1r	.	.	257.754	.	voice
1r;	1r	r;	.	r;	.	r;	.	.	259.762	.	r
1r;	1r	r;	.	r;	.	r;	.	.	265.273	.	r
*-	*-	*-	*-	*-	*-	*-	*-	*-	*-	*-	*-
!!!BillboardChartDate: 1985/05/18
!!!BillboardPeak: 3
!!!BillboardWeeksOnChart: 22
!!!COC: Commodores
!!!ENC: Nathaniel Condit-Schultz
!!!EST: Awating manual error checking and editing.
!!!OTL: Nightshift
!!!RDF**chordsym: original McGill chord annotation + (implied pitch class set, with bass pitch in first position)
!!!RDF**harmony: **recip + pitch class of root + harmonic quality
!!!RDF**leadinstrument: original McGill primary instrumentation annotation
!!!RDF**phrase: newline = linebreak in original McGill transcription
!!!RDF**timestamp: McGill audio timestamp in seconds
!!!RDT: 2017/01/12/
!!!SampleActualRank: 24
!!!SampleID#: 0992
!!!SampleTargetRank: 22
!!!MBID: 96334783-24a2-445b-bf43-1623262af116
